static/fa/svgs/solid/house-chimney-user.svg

<svg xmlns="http://www.w3.org/2000/svg" viewBox="0 0 576 512"><!--! Font Awesome Free 6.1.1 by @fontawesome - https://fontawesome.com License - https://fontawesome.com/license/free (Icons: CC BY 4.0, Fonts: SIL OFL 1.1, Code: MIT License) Copyright 2022 Fonticons, Inc.--><path d="m511.8 287.6.7 160.1c.1 35.5-28.6 64.3-64 64.3H128.1c-35.35 0-64.01-28.7-64.01-64V287.6H32.05C14.02 287.6 0 273.5 0 255.5c0-9 3.004-17 10.01-24L266.4 8.016c7-7.014 15-8.016 22-8.016s15 2.004 21.1 7.014L416 100.7V64c0-17.67 14.3-32 32-32h32c17.7 0 32 14.33 32 32v121l52.8 46.5c8 7 12.1 15 11 24 0 18-15 32.1-32 32.1h-32zM288 288c35.3 0 64-28.7 64-64s-28.7-64-64-64-64 28.7-64 64 28.7 64 64 64zm-96 128h192c8.8 0 16-7.2 16-16 0-44.2-35.8-80-80-80h-64c-44.2 0-80 35.8-80 80 0 8.8 7.2 16 16 16z"/></svg>

<svg xmlns="http://www.w3.org/2000/svg" viewBox="0 0 576 512"><!--! Font Awesome Free 6.1.1 by @fontawesome - https://fontawesome.com License - https://fontawesome.com/license/free (Icons: CC BY 4.0, Fonts: SIL OFL 1.1, Code: MIT License) Copyright 2022 Fonticons, Inc. --><path d="M511.8 287.6L512.5 447.7C512.6 483.2 483.9 512 448.5 512H128.1C92.75 512 64.09 483.3 64.09 448V287.6H32.05C14.02 287.6 0 273.5 0 255.5C0 246.5 3.004 238.5 10.01 231.5L266.4 8.016C273.4 1.002 281.4 0 288.4 0C295.4 0 303.4 2.004 309.5 7.014L416 100.7V64C416 46.33 430.3 32 448 32H480C497.7 32 512 46.33 512 64V185L564.8 231.5C572.8 238.5 576.9 246.5 575.8 255.5C575.8 273.5 560.8 287.6 543.8 287.6L511.8 287.6zM288 288C323.3 288 352 259.3 352 224C352 188.7 323.3 160 288 160C252.7 160 224 188.7 224 224C224 259.3 252.7 288 288 288zM192 416H384C392.8 416 400 408.8 400 400C400 355.8 364.2 320 320 320H256C211.8 320 176 355.8 176 400C176 408.8 183.2 416 192 416z"/></svg>
